driving_time_log/assets/calendar.svg

<?xml version="1.0" encoding="UTF-8"?>
<svg fill="none" viewBox="0 0 512 512"
	xmlns="http://www.w3.org/2000/svg">
	<path d="m469.16 323.9c-5.633 0-10.199 4.567-10.199 10.199v117.29c0 5.633 4.566 10.199 10.199 10.199s10.199-4.567 10.199-10.199v-117.29c1e-3 -5.632-4.566-10.199-10.199-10.199z"/>
	<path d="m469.16 283.1c-5.633 0-10.199 4.567-10.199 10.199v7.139c0 5.633 4.566 10.199 10.199 10.199s10.199-4.567 10.199-10.199v-7.139c1e-3 -5.631-4.566-10.199-10.199-10.199z"/>
	<path d="m501.8 57.625h-42.837v-31.617c0-5.632-4.566-10.199-10.199-10.199s-10.199 4.567-10.199 10.199v31.617h-42.837v-31.617c0-5.632-4.566-10.199-10.199-10.199s-10.199 4.567-10.199 10.199v31.617h-45.896v-31.617c0-5.632-4.566-10.199-10.199-10.199s-10.199 4.567-10.199 10.199v31.617h-42.837v-31.617c0-5.632-4.566-10.199-10.199-10.199s-10.199 4.567-10.199 10.199v31.617h-42.837v-31.617c0-5.632-4.566-10.199-10.199-10.199s-10.199 4.567-10.199 10.199v31.617h-45.896v-31.617c0-5.632-4.566-10.199-10.199-10.199s-10.199 4.567-10.199 10.199v31.617h-42.839v-31.617c0-5.632-4.566-10.199-10.199-10.199s-10.199 4.567-10.199 10.199v31.617h-42.837c-5.633 0-10.199 4.568-10.199 10.2v418.17c0 5.632 4.566 10.199 10.199 10.199h491.6c5.633 0 10.199-4.567 10.199-10.199v-418.17c0-5.632-4.566-10.2-10.199-10.2zm-10.199 418.17h-471.2v-323.24h471.2v323.24zm0-343.64h-471.2v-54.133h32.637v22.438c0 5.632 4.566 10.199 10.199 10.199s10.199-4.567 10.199-10.199v-22.438h42.837v22.438c0 5.632 4.566 10.199 10.199 10.199s10.199-4.567 10.199-10.199v-22.438h45.896v22.438c0 5.632 4.566 10.199 10.199 10.199s10.199-4.567 10.199-10.199v-22.438h42.837v22.438c0 5.632 4.566 10.199 10.199 10.199s10.199-4.567 10.199-10.199v-22.438h42.837v22.438c0 5.632 4.566 10.199 10.199 10.199s10.199-4.567 10.199-10.199v-22.438h45.896v22.438c0 5.632 4.566 10.199 10.199 10.199s10.199-4.567 10.199-10.199v-22.438h42.837v22.438c0 5.632 4.566 10.199 10.199 10.199s10.199-4.567 10.199-10.199v-22.438h32.637v54.133z"/>
	<path d="m433.47 200.49h-354.93c-5.633 0-10.199 4.567-10.199 10.199v206.97c0 5.632 4.566 10.199 10.199 10.199h354.93c5.633 0 10.199-4.567 10.199-10.199v-206.97c0-5.632-4.566-10.199-10.199-10.199zm-246.82 206.97h-97.912v-48.407h97.912v48.407zm0-68.806h-97.912v-48.956h97.912v48.956zm0-69.354h-97.912v-48.408h97.912v48.408zm118.31 138.16h-97.912v-48.407h97.912v48.407zm0-68.806h-97.912v-48.956h97.912v48.956zm0-69.354h-97.912v-48.408h97.912v48.408zm118.31 138.16h-97.912v-48.407h97.912v48.407zm0-68.806h-97.912v-48.956h97.912v48.956zm0-69.354h-97.912v-48.408h97.912v48.408z"/>
</svg>

<?xml version="1.0" encoding="iso-8859-1"?>
<!-- Generator: Adobe Illustrator 19.0.0, SVG Export Plug-In . SVG Version: 6.00 Build 0)  -->
<svg version="1.1" id="Layer_1" xmlns="http://www.w3.org/2000/svg" xmlns:xlink="http://www.w3.org/1999/xlink" x="0px" y="0px"
	 viewBox="0 0 512 512" style="enable-background:new 0 0 512 512;" xml:space="preserve">
<g>
	<g>
		<path d="M469.163,323.902c-5.633,0-10.199,4.567-10.199,10.199v117.291c0,5.633,4.566,10.199,10.199,10.199
			c5.633,0,10.199-4.567,10.199-10.199V334.101C479.363,328.469,474.796,323.902,469.163,323.902z"/>
	</g>
</g>
<g>
	<g>
		<path d="M469.163,283.105c-5.633,0-10.199,4.567-10.199,10.199v7.139c0,5.633,4.566,10.199,10.199,10.199
			c5.633,0,10.199-4.567,10.199-10.199v-7.139C479.363,287.673,474.796,283.105,469.163,283.105z"/>
	</g>
</g>
<g>
	<g>
		<path d="M501.801,57.625h-42.837V26.008c0-5.632-4.566-10.199-10.199-10.199s-10.199,4.567-10.199,10.199v31.617h-42.837V26.008
			c0-5.632-4.566-10.199-10.199-10.199c-5.633,0-10.199,4.567-10.199,10.199v31.617h-45.896V26.008
			c0-5.632-4.566-10.199-10.199-10.199c-5.633,0-10.199,4.567-10.199,10.199v31.617h-42.837V26.008
			c0-5.632-4.566-10.199-10.199-10.199c-5.633,0-10.199,4.567-10.199,10.199v31.617h-42.837V26.008
			c0-5.632-4.566-10.199-10.199-10.199s-10.199,4.567-10.199,10.199v31.617h-45.896V26.008c0-5.632-4.566-10.199-10.199-10.199
			c-5.633,0-10.199,4.567-10.199,10.199v31.617H73.434V26.008c0-5.632-4.566-10.199-10.199-10.199
			c-5.633,0-10.199,4.567-10.199,10.199v31.617H10.199C4.566,57.625,0,62.193,0,67.825v418.167c0,5.632,4.566,10.199,10.199,10.199
			h491.602c5.633,0,10.199-4.567,10.199-10.199V67.825C512,62.193,507.434,57.625,501.801,57.625z M491.602,475.793H20.398V152.556
			h471.203V475.793z M491.602,132.157H20.398V78.024h32.637v22.438c0,5.632,4.566,10.199,10.199,10.199
			c5.633,0,10.199-4.567,10.199-10.199V78.024h42.837v22.438c0,5.632,4.566,10.199,10.199,10.199
			c5.633,0,10.199-4.567,10.199-10.199V78.024h45.896v22.438c0,5.632,4.566,10.199,10.199,10.199s10.199-4.567,10.199-10.199V78.024
			h42.837v22.438c0,5.632,4.566,10.199,10.199,10.199c5.633,0,10.199-4.567,10.199-10.199V78.024h42.837v22.438
			c0,5.632,4.566,10.199,10.199,10.199c5.633,0,10.199-4.567,10.199-10.199V78.024h45.896v22.438
			c0,5.632,4.566,10.199,10.199,10.199c5.633,0,10.199-4.567,10.199-10.199V78.024h42.837v22.438
			c0,5.632,4.566,10.199,10.199,10.199s10.199-4.567,10.199-10.199V78.024h32.637V132.157z"/>
	</g>
</g>
<g>
	<g>
		<path d="M433.466,200.492H78.534c-5.633,0-10.199,4.567-10.199,10.199v206.966c0,5.632,4.566,10.199,10.199,10.199h354.932
			c5.633,0,10.199-4.567,10.199-10.199V210.691C443.665,205.059,439.099,200.492,433.466,200.492z M186.645,407.458H88.733v-48.407
			h97.912V407.458z M186.645,338.652H88.733v-48.956h97.912V338.652z M186.645,269.298H88.733V220.89h97.912V269.298z
			 M304.956,407.458h-97.912v-48.407h97.912V407.458z M304.956,338.652h-97.912v-48.956h97.912V338.652z M304.956,269.298h-97.912
			V220.89h97.912V269.298z M423.267,407.458h-97.912v-48.407h97.912V407.458z M423.267,338.652h-97.912v-48.956h97.912V338.652z
			 M423.267,269.298h-97.912V220.89h97.912V269.298z"/>
	</g>
</g>
<g>
</g>
<g>
</g>
<g>
</g>
<g>
</g>
<g>
</g>
<g>
</g>
<g>
</g>
<g>
</g>
<g>
</g>
<g>
</g>
<g>
</g>
<g>
</g>
<g>
</g>
<g>
</g>
<g>
</g>
</svg>
